tools/download-figma-icons/icons/outlined-medium/carreer.svg

<svg width="24" height="24" viewBox="0 0 24 24" fill="none" xmlns="http://www.w3.org/2000/svg">
<path fill-rule="evenodd" clip-rule="evenodd" d="M13.8821 11.8871H22.4993V7.54473C22.4993 7.118 21.9968 6.74976 21.4044 6.74976H2.59503C2.00255 6.74976 1.50007 7.118 1.50007 7.54473V11.8871H9.43479V10.4246C9.43479 10.0121 9.76477 9.67466 10.1848 9.67466H13.1322C13.5446 9.67466 13.8821 10.0121 13.8821 10.4246V11.8871ZM12.382 14.0995H12.3822V11.1746H10.9347V11.1749H10.9346V14.0998H12.382V14.0995ZM14.5721 3.74311L14.5719 3.74311V3.74284L12.7276 3.74553L9.42653 3.74986V5.24981H9.42706V5.25029H14.5719V5.24981H14.5721V3.74311ZM16.0721 5.24981H21.4044C22.8368 5.24981 23.9993 6.28478 23.9993 7.54473V12.6371C23.9993 13.0578 23.6618 13.387 23.2493 13.387H13.8821V14.8495C13.8821 15.2695 13.5446 15.5994 13.1322 15.5994H10.1848C9.76477 15.5994 9.43479 15.2695 9.43479 14.8495V13.387H0.750095C0.33761 13.387 0.000122066 13.0578 0.000122066 12.6371V7.54473C0.000122066 6.28478 1.16258 5.24981 2.59503 5.24981H7.93484V3.74312C7.93484 2.9174 8.60232 2.24992 9.42654 2.24992H14.5789C15.3971 2.24992 16.0721 2.9174 16.0721 3.74312V5.24981ZM2.59578 21.5035H21.4059C22.8601 21.5035 24 20.6507 24 19.5625V15.6402C24 15.2254 23.6648 14.8902 23.25 14.8902C22.8353 14.8902 22.5001 15.2254 22.5001 15.6402V19.5625C22.5001 19.6728 22.1116 20.0035 21.4059 20.0035H2.59578C1.89081 20.0035 1.50232 19.6728 1.50232 19.5625V15.6402C1.50232 15.2254 1.16708 14.8902 0.752348 14.8902C0.337612 14.8902 0.00237431 15.2254 0.00237431 15.6402V19.5625C0.00237431 20.6507 1.14083 21.5035 2.59578 21.5035Z" fill="black"/>
</svg>

<svg width="24" height="24" viewBox="0 0 24 24" fill="none" xmlns="http://www.w3.org/2000/svg"><path fill-rule="evenodd" clip-rule="evenodd" d="M13.882 11.887H22.5V7.545c0-.427-.502-.795-1.095-.795H2.595c-.592 0-1.095.368-1.095.795v4.342h7.935v-1.462c0-.413.33-.75.75-.75h2.947c.413 0 .75.337.75.75v1.462Zm-1.5 2.213v-2.925h-1.447V14.1h1.447Zm2.19-10.357-1.844.003-3.301.004v1.5h5.145V3.743Zm1.5 1.507h5.332C22.837 5.25 24 6.285 24 7.545v5.092c0 .42-.337.75-.75.75h-9.367v1.463c0 .42-.337.75-.75.75h-2.947c-.42 0-.75-.33-.75-.75v-1.463H.75a.747.747 0 0 1-.75-.75V7.545C0 6.285 1.163 5.25 2.595 5.25h5.34V3.743A1.49 1.49 0 0 1 9.427 2.25h5.152c.818 0 1.493.667 1.493 1.493V5.25ZM2.596 21.503h18.81c1.454 0 2.594-.852 2.594-1.94V15.64a.75.75 0 1 0-1.5 0v3.922c0 .11-.388.441-1.094.441H2.596c-.705 0-1.094-.33-1.094-.44V15.64a.75.75 0 1 0-1.5 0v3.922c0 1.089 1.139 1.941 2.594 1.941Z" fill="currentColor"/></svg>
